icons/girl_0105y_fill.svg

<svg width="48" height="48" viewBox="0 0 48 48" fill="none" xmlns="http://www.w3.org/2000/svg">
<path fill-rule="evenodd" clip-rule="evenodd" d="M24 17C25.933 17 27.5 15.433 27.5 13.5C27.5 11.567 25.933 10 24 10C22.067 10 20.5 11.567 20.5 13.5C20.5 15.433 22.067 17 24 17ZM34.5075 21.4221C35.576 21.1419 36.2149 20.0485 35.9347 18.9801C35.6544 17.9117 34.5611 17.2727 33.4927 17.553C29.6844 18.5519 26.8207 18.9987 24.008 18.9873C21.1891 18.976 18.3176 18.5043 14.4847 17.5471C13.413 17.2795 12.3273 17.9313 12.0597 19.003C11.7921 20.0746 12.4439 21.1603 13.5155 21.428C15.3645 21.8897 17.0504 22.2562 18.6542 22.5177C18.3391 24.6186 16.6592 28.077 15.6905 29.9435C15.366 30.5687 15.7556 31.3385 16.4544 31.427C22.3908 32.1792 26.1458 32.1987 31.609 31.4387C32.2899 31.344 32.6698 30.6013 32.3629 29.9861C31.4194 28.0948 29.7229 24.515 29.3626 22.5431C30.9666 22.2825 32.6543 21.9082 34.5075 21.4221Z" fill="black"/>
<path fill-rule="evenodd" clip-rule="evenodd" d="M19 33.0137V36.5C19 37.2522 19.5572 37.8881 20.3029 37.987C21.0485 38.0859 21.7521 37.6172 21.9482 36.891L22.8886 33.4077C21.646 33.3484 20.3731 33.2177 19 33.0137ZM26.1097 33.4009L27.0519 36.891C27.2479 37.6172 27.9516 38.0859 28.6972 37.987C29.4429 37.8881 30 37.2522 30 36.5V32.9999C28.6264 33.2027 27.3529 33.3369 26.1097 33.4009Z" fill="black"/>
</svg>

<svg
  xmlns="http://www.w3.org/2000/svg"
  width="24"
  height="24"
  viewBox="0 0 24 24"
  fill="none"
  stroke="currentColor"
  stroke-width="2"
  stroke-linecap="round"
  stroke-linejoin="round"
>
  <path
    fill-rule="evenodd"
    d="M24 17a3.5 3.5 0 1 0 0-7 3.5 3.5 0 0 0 0 7m10.508 4.422a2 2 0 1 0-1.015-3.869c-3.809.999-6.672 1.446-9.485 1.434-2.819-.011-5.69-.483-9.523-1.44a2 2 0 0 0-.97 3.881c1.85.462 3.535.828 5.14 1.09-.316 2.1-1.996 5.559-2.965 7.426-.324.625.066 1.395.764 1.483 5.937.752 9.692.772 15.155.012.68-.095 1.06-.838.754-1.453-.944-1.891-2.64-5.471-3-7.443 1.604-.26 3.291-.635 5.145-1.12"
    clip-rule="evenodd"
  />
  <path
    fill-rule="evenodd"
    d="M19 33.014V36.5a1.5 1.5 0 0 0 2.948.391l.94-3.483A39 39 0 0 1 19 33.014m7.11.387.942 3.49A1.5 1.5 0 0 0 30 36.5V33a41 41 0 0 1-3.89.4"
    clip-rule="evenodd"
  />
</svg>
